svg/single/verve.svg

<svg height="296" viewBox="0 0 750 296" width="750" xmlns="http://www.w3.org/2000/svg"><g fill="none"><rect fill="#00425f" height="295.450012" rx="20" width="750"/><g transform="translate(66 35)"><circle cx="107.5" cy="107.5" fill="#ee312a" r="107.5"/><g fill="#fff"><path d="m107.499995 153.362725c-24.0318427-54.4753913-41.6551458-105.362725-41.6551458-105.362725h-36.8448492s22.4257509 65.317063 64.080897 147h28.838206c41.655146-81.682937 64.080897-147 64.080897-147h-36.844859s-17.623303 50.8873337-41.655146 105.362725z"/><path d="m621.113436 146.540569h-71.798759s1.595141 24.126314 33.506008 24.126314c15.954923 0 31.911043-4.828895 31.911043-4.828895l3.191518 25.729318s-15.956121 6.432694-38.293949 6.432694c-31.909725 0-60.629297-16.081409-60.629297-61.108005 0-35.378697 22.3365-57.891995 54.247544-57.891995 47.865892 0 51.057409 48.243281 47.865892 67.540569zm-49.460932-45.027271c-20.742733 0-22.337827 22.513299-22.337827 22.513299h44.674328s-1.595095-22.513299-22.336501-22.513299z"/><path d="m373.214385 108.623324 4.785615-25.5938844s-36.958685-11.2459866-67 9.5976774v102.372883h31.906457l-.002516-83.177668c12.761083-9.597547 30.310444-3.199008 30.310444-3.199008z"/><path d="m286.113913 146.540569h-71.7982s1.595128 24.126314 33.505747 24.126314c15.954799 0 31.909477-4.828895 31.909477-4.828895l3.191492 25.729318s-15.954668 6.432694-38.292322 6.432694c-31.910795 0-60.630107-16.081409-60.630107-61.108005 0-35.378697 22.337654-57.891995 54.248449-57.891995 47.865464 0 51.055601 48.243281 47.865464 67.540569zm-49.461874-45.027271c-20.741244 0-22.336326 22.513299-22.336326 22.513299h44.67398s-1.595092-22.513299-22.337654-22.513299z"/><path d="m451 156.605781c-9.94728-24.199275-17.972439-49.145102-24.000936-74.605781l-31.999064.0042285s16.000193 61.7930505 43.202963 112.9957715h25.594074c27.202789-51.202721 43.202963-112.9843806 43.202963-112.9843806h-31.999064c-6.029832 25.4552216-14.054969 50.3957546-24.000936 74.5901616z"/></g></g></g></svg>

<svg width="750" height="296" viewBox="0 0 750 296" version="1.1" xmlns="http://www.w3.org/2000/svg" xmlns:xlink="http://www.w3.org/1999/xlink">
    <!-- Generator: Sketch 48.2 (47327) - http://www.bohemiancoding.com/sketch -->
    <desc>Created with Sketch.</desc>
    <defs></defs>
    <g id="Page-1" stroke="none" stroke-width="1" fill="none" fill-rule="evenodd">
        <g id="verve" fill-rule="nonzero">
            <rect id="Rectangle-path" fill="#00425F" x="0" y="0" width="750" height="295.450012" rx="20"></rect>
            <g id="Group" transform="translate(66.000000, 35.000000)">
                <circle id="Oval" fill="#EE312A" cx="107.5" cy="107.5" r="107.5"></circle>
                <path d="M107.499995,153.362725 C83.4681523,98.8873337 65.8448492,48 65.8448492,48 L29,48 C29,48 51.4257509,113.317063 93.080897,195 L121.919103,195 C163.574249,113.317063 186,48 186,48 L149.155141,48 C149.155141,48 131.531838,98.8873337 107.499995,153.362725 Z" id="Shape" fill="#FFFFFF"></path>
                <path d="M621.113436,146.540569 L549.314677,146.540569 C549.314677,146.540569 550.909818,170.666883 582.820685,170.666883 C598.775608,170.666883 614.731728,165.837988 614.731728,165.837988 L617.923246,191.567306 C617.923246,191.567306 601.967125,198 579.629297,198 C547.719572,198 519,181.918591 519,136.891995 C519,101.513298 541.3365,79 573.247544,79 C621.113436,79 624.304953,127.243281 621.113436,146.540569 Z M571.652504,101.513298 C550.909771,101.513298 549.314677,124.026597 549.314677,124.026597 L593.989005,124.026597 C593.989005,124.026597 592.39391,101.513298 571.652504,101.513298 Z" id="Shape" fill="#FFFFFF"></path>
                <path d="M373.214385,108.623324 L378,83.0294396 C378,83.0294396 341.041315,71.783453 311,92.627117 L311,195 L342.906457,195 L342.903941,111.822332 C355.665024,102.224785 373.214385,108.623324 373.214385,108.623324 Z" id="Shape" fill="#FFFFFF"></path>
                <path d="M286.113913,146.540569 L214.315713,146.540569 C214.315713,146.540569 215.910841,170.666883 247.82146,170.666883 C263.776259,170.666883 279.730937,165.837988 279.730937,165.837988 L282.922429,191.567306 C282.922429,191.567306 266.967761,198 244.630107,198 C212.719312,198 184,181.918591 184,136.891995 C184,101.513298 206.337654,79 238.248449,79 C286.113913,79 289.30405,127.243281 286.113913,146.540569 Z M236.652039,101.513298 C215.910795,101.513298 214.315713,124.026597 214.315713,124.026597 L258.989693,124.026597 C258.989693,124.026597 257.394601,101.513298 236.652039,101.513298 Z" id="Shape" fill="#FFFFFF"></path>
                <path d="M451,156.605781 C441.05272,132.406506 433.027561,107.460679 426.999064,82 L395,82.0042285 C395,82.0042285 411.000193,143.797279 438.202963,195 L463.797037,195 C490.999826,143.797279 507,82.0156194 507,82.0156194 L475.000936,82.0156194 C468.971104,107.470841 460.945967,132.411374 451,156.605781 Z" id="Shape" fill="#FFFFFF"></path>
            </g>
        </g>
    </g>
</svg>
